trunk/public/assets/images/icons/black/refresh/guestbook.svg

<svg width="16" height="16" xmlns="http://www.w3.org/2000/svg" viewBox="0 0 16 16" shape-rendering="geometricPrecision"><defs><mask id="a"><rect fill="#fff" width="100%" height="100%"/><path d="M17.514 2.67l-.862-.55L16.65-1h-2.866v.558c-1.334-.3-2.758.103-3.723 1.067-1.568 1.57-1.553 4.14.036 5.732.78.777 1.81 1.205 2.9 1.205 1.072 0 2.078-.415 2.832-1.168C16.585 5.64 17 4.63 17 3.557V2.67h.514zm-3.373.888c0 .22-.057.54-.332.813-.443.444-1.23.427-1.69-.034-.475-.475-.49-1.234-.036-1.69.01-.01.02-.02.033-.03v.922h2.026v.02z"/></mask></defs><path d="M13.114 2.537h2.538V0h-.868v1.105c-1.204-.927-2.924-.863-4.016.227-1.187 1.188-1.162 3.12.035 4.317 1.2 1.197 3.13 1.223 4.32.036.584-.584.878-1.357.877-2.128h-.86c0 .558-.207 1.103-.626 1.522-.843.842-2.23.836-3.104-.036-.87-.872-.877-2.26-.035-3.105.73-.728 1.86-.82 2.72-.27h-.982v.867z" fill="#cb1800"/><path d="M11.03 9.168H9.308v.744h1.724v-.744zM7.07 6.992l.973-2.43L5.5 3.545 4.12 6.992H.892V16h14.216V6.99h-8.04zm.437 8.013H1.882V7.982h1.84l-.966 2.413 2.54 1.02L6.67 7.98h.835v7.023zm6.612 0h-5.62V7.982h5.62v7.023zm-1.26-4.5h-3.55v.746h3.55v-.744zM8.732 2.844c.275-.7-.065-1.493-.764-1.77-.7-.282-1.492.057-1.778.754L5.78 2.843l2.542 1.022.41-1.022zM3.06 13.316l1.152-.983-1.295-.517.143 1.5z" mask="url(#a)"/></svg>

<?xml version="1.0"?><!DOCTYPE svg PUBLIC "-//W3C//DTD SVG 1.1//EN" "http://www.w3.org/Graphics/SVG/1.1/DTD/svg11.dtd"><svg width="16px" height="16px" xmlns="http://www.w3.org/2000/svg" viewBox="0 0 16 16" shape-rendering="geometricPrecision" fill="#000"><defs><mask id="refresh-path"><rect fill="#fff" width="100%" height="100%"/><path d="M17.514,2.671l-0.862-0.552L16.65-1h-2.866v0.558c-1.334-0.3-2.758,0.103-3.723,1.067 c-1.569,1.569-1.554,4.141,0.035,5.732c0.779,0.777,1.809,1.205,2.901,1.205c1.071,0,2.077-0.415,2.831-1.168 C16.585,5.639,17.001,4.631,17,3.557l0-0.886H17.514z M14.141,3.558c0,0.22-0.058,0.539-0.333,0.813 c-0.443,0.443-1.23,0.426-1.69-0.035c-0.475-0.475-0.49-1.234-0.036-1.689c0.011-0.011,0.021-0.022,0.033-0.031l0,0.922h2.026 V3.558z" fill="#000"/></mask></defs><path display="inline" d="M13.114,2.537h2.538L15.651,0h-0.867v1.105 c-1.204-0.927-2.924-0.863-4.016,0.227C9.581,2.52,9.606,4.451,10.803,5.649c1.201,1.198,3.131,1.224,4.319,0.037 C15.707,5.102,16.001,4.329,16,3.558l-0.859,0.001c-0.001,0.557-0.208,1.102-0.627,1.521c-0.843,0.842-2.231,0.836-3.104-0.036 c-0.871-0.872-0.877-2.26-0.035-3.105c0.729-0.727,1.86-0.818,2.721-0.268h-0.983L13.114,2.537z" fill="#cb1800"/><g mask="url(#refresh-path)"><path d="M11.031,9.168H9.307v0.744h1.724V9.168z M7.068,6.992l0.973-2.429L5.5,3.544L4.12,6.992H0.892v9.007 h14.216V6.992H7.068z M7.505,15.005H1.882V7.982h1.84l-0.966,2.413l2.54,1.019l1.375-3.432h0.834V15.005z M14.117,15.005h-5.62 V7.982h5.62V15.005z M12.858,10.506H9.307v0.745h3.551V10.506z M8.731,2.843H8.73c0.275-0.7-0.065-1.493-0.764-1.771 c-0.7-0.281-1.492,0.058-1.778,0.755L5.78,2.843l2.542,1.022L8.731,2.843z M3.058,13.316l1.152-0.983l-1.295-0.517L3.058,13.316z"/></g></svg>
